X: 69
T: GRAHAM CLARK'S
%R: strathspey
B: Jean White "100 Popular Hornpipes, Reels, Jigs and Country Dances", Boston 1880 p.30
F: http://www.loc.gov/resource/sm1880.09124.0#seq-1
Z: 2014 John Chambers <jc:trillian.mit.edu>
M: C|
L: 1/8
K: D
% - - - - - - - - - - - - - - - - - - - - - - - - - - - - -
f |\
d2A>f d2A>F | E>ee>d c<AB>c |\
d>fe>f d>eB>d | A>BA>F A<dd :|
f/g/ |\
a>fd>f (3dfg a>f | b>ge>g (3ega b>g |\
a>fdf/g/ a>fd>A | B>gf>e f<ddf/g/ |
a>fd>f df/g/ a>f | b>ge>g eg/a/ b>g |\
f>ae>f d>eB>d | A>BA>F A<dd H|]
% - - - - - - - - - - - - - - - - - - - - - - - - - - - - -

%%sep 1 1 500
%%sep 1 1 500
